src/symbolic/apps/web-browser-symbolic.svg

<svg xmlns="http://www.w3.org/2000/svg" width="16" height="16"><path d="M8 0C3.58 0 0 3.58 0 8s3.58 8 8 8 8-3.58 8-8-3.58-8-8-8zm4.86 3.14L9.61 9.61l-6.47 3.25 3.25-6.47zM8 7.14c-.47 0-.86.39-.86.86s.39.86.86.86.86-.39.86-.86-.39-.86-.86-.86z" fill="#444"/></svg>

<svg xmlns="http://www.w3.org/2000/svg" width="16" height="16" version="1.1">
 <path style="fill:#444444" d="M 8,0 C 3.58,0 0,3.58 0,8 0,12.42 3.58,16 8,16 12.42,16 16,12.42 16,8 16,3.58 12.42,0 8,0 Z M 12.86,3.14 9.61,9.61 3.14,12.86 6.39,6.39 Z M 8,7.14 C 7.53,7.14 7.14,7.53 7.14,8 7.14,8.47 7.53,8.86 8,8.86 8.47,8.86 8.86,8.47 8.86,8 8.86,7.53 8.47,7.14 8,7.14 Z"/>
</svg>
